svg/gold.svg

<?xml version="1.0" encoding="UTF-8" standalone="no"?>
<!-- Created with Inkscape (http://www.inkscape.org/) -->

<svg
   width="32"
   height="32"
   viewBox="0 0 8.4666666 8.4666668"
   version="1.1"
   id="svg5"
   inkscape:version="1.1.2 (b8e25be8, 2022-02-05)"
   sodipodi:docname="gold.svg"
   xmlns:inkscape="http://www.inkscape.org/namespaces/inkscape"
   xmlns:sodipodi="http://sodipodi.sourceforge.net/DTD/sodipodi-0.dtd"
   xmlns="http://www.w3.org/2000/svg"
   xmlns:svg="http://www.w3.org/2000/svg"
   xmlns:rdf="http://www.w3.org/1999/02/22-rdf-syntax-ns#"
   xmlns:cc="http://creativecommons.org/ns#">
  <sodipodi:namedview
     id="namedview7"
     pagecolor="#ffffff"
     bordercolor="#111111"
     borderopacity="1"
     inkscape:pageshadow="0"
     inkscape:pageopacity="0"
     inkscape:pagecheckerboard="1"
     inkscape:document-units="mm"
     showgrid="true"
     width="32mm"
     units="px"
     objecttolerance="10000"
     guidetolerance="10000"
     inkscape:snap-perpendicular="true"
     inkscape:snap-tangential="true"
     inkscape:zoom="34.90625"
     inkscape:cx="16"
     inkscape:cy="16"
     inkscape:window-width="2560"
     inkscape:window-height="1301"
     inkscape:window-x="0"
     inkscape:window-y="25"
     inkscape:window-maximized="0"
     inkscape:current-layer="layer1"
     gridtolerance="10000">
    <inkscape:grid
       type="xygrid"
       id="grid9"
       units="px"
       empspacing="2" />
  </sodipodi:namedview>
  <defs
     id="defs2" />
  <g
     inkscape:label="Layer 1"
     inkscape:groupmode="layer"
     id="layer1">
    <g
       id="g7391"
       transform="translate(0.79375002)">
      <path
         id="path6241"
         style="fill:#000000;fill-opacity:1;stroke:none;stroke-width:0"
         d="M 8,10 C 5.8325077,10.0036 4.0621979,11.777416 4.0078125,14 H 4 v 2 6 h 2 l 1e-7,-5 H 10 l 0,5 h 2 V 16 14 H 11.998 C 11.943555,11.775103 10.169751,10.000412 8,10 Z m 0,2 c 1.1045695,0 2,0.89543 2,2 l 0,1 H 6 v -1 c -1e-7,-1.10457 0.8954305,-2 2,-2 z"
         transform="scale(0.26458333)"
         sodipodi:nodetypes="ccccccccccccccsccccs" />
      <path
         id="path6913"
         style="fill:#000000;fill-opacity:1;stroke:none;stroke-width:0"
         d="m 3.7041666,3.7041666 v 1.0583333 h 0.00206 A 1.0583332,1.0855733 0 0 0 4.7624999,5.8208333 1.0583332,1.0855733 0 0 0 5.3634967,5.6280801 h 5.292e-4 l 0.192224,0.1927532 H 5.8208333 V 3.7041666 H 5.2916666 V 4.7624999 A 0.52916663,0.52916663 0 0 1 4.7624999,5.2916666 0.52916663,0.52916663 0 0 1 4.2333333,4.7624999 V 3.7041666 Z" />
    </g>
  </g>
  <metadata
     id="metadata33">
    <rdf:RDF>
      <cc:Work
         rdf:about="">
        <cc:license
           rdf:resource="http://creativecommons.org/licenses/by-sa/4.0/" />
      </cc:Work>
      <cc:License
         rdf:about="http://creativecommons.org/licenses/by-sa/4.0/">
        <cc:permits
           rdf:resource="http://creativecommons.org/ns#Reproduction" />
        <cc:permits
           rdf:resource="http://creativecommons.org/ns#Distribution" />
        <cc:requires
           rdf:resource="http://creativecommons.org/ns#Notice" />
        <cc:requires
           rdf:resource="http://creativecommons.org/ns#Attribution" />
        <cc:permits
           rdf:resource="http://creativecommons.org/ns#DerivativeWorks" />
        <cc:requires
           rdf:resource="http://creativecommons.org/ns#ShareAlike" />
      </cc:License>
    </rdf:RDF>
  </metadata>
</svg>

<svg width="32" height="32" viewBox="0 0 8.467 8.467" xmlns="http://www.w3.org/2000/svg"><path style="fill:#000;fill-opacity:1;stroke:none;stroke-width:0" d="M8 10c-2.167.004-3.938 1.777-3.992 4H4v8h2v-5h4v5h2v-8h-.002c-.054-2.225-1.828-4-3.998-4Zm0 2a2 2 0 0 1 2 2v1H6v-1a2 2 0 0 1 2-2z" transform="matrix(.26458 0 0 .26458 .794 0)"/><path style="fill:#000;fill-opacity:1;stroke:none;stroke-width:0" d="M3.704 3.704v1.058h.002a1.058 1.086 0 0 0 1.056 1.059 1.058 1.086 0 0 0 .601-.193h.001l.192.193h.265V3.704h-.53v1.058a.53.53 0 0 1-.529.53.53.53 0 0 1-.529-.53V3.704Z" transform="translate(.794)"/></svg>
